X:209 
T:Tom Keane's (reel) 
B:CRE3.152 (RÃÂÃÂÃÂÃÂ­l ThomÃÂÃÂÃÂÃÂ¡is Ui ChÃÂÃÂÃÂÃÂ©in)
F:file ID: cre.3/209tom_k
N:The |G| in the second ending of Part A sounds weird, but
that how CRE has it (if it's too weird, try |A3|).
L:1/8
R:reel
Q:180
M:C
K:D
"A modal"
B|c2AB (3cBA eA|cAAF G3B|cAAB (3cBA eA|1 cA (3BcB A3:|\
[2 cA (3BcB G3z||
eaag e3d|cdef g3f|eaag e2ed|cA B/c/B A2A2|
eaag e2ed|cdef g3f|eaag e3d|cA B/c/B A4||

%%%

